src/objects/computer/1F5B2.svg

<svg id="emoji" viewBox="0 0 72 72" xmlns="http://www.w3.org/2000/svg">
  <g id="grid">
    <path fill="#b3b3b3" d="M68,4V68H4V4H68m4-4H0V72H72V0Z"/>
    <rect x="11" y="10.9583" rx="1.9231" width="50" height="50" fill="none" stroke="#00a5ff" stroke-miterlimit="10" stroke-width="0.1"/>
    <rect x="16" y="4" rx="2.2537" width="40" height="64" fill="none" stroke="#00a5ff" stroke-miterlimit="10" stroke-width="0.1"/>
    <rect x="16" y="4" rx="2.2537" width="40" height="64" transform="translate(72) rotate(90)" fill="none" stroke="#00a5ff" stroke-miterlimit="10" stroke-width="0.1"/>
    <circle cx="36" cy="36" r="29" fill="none" stroke="#00a5ff" stroke-miterlimit="10" stroke-width="0.1"/>
  </g>
  <g id="color">
    <path fill="#d0cfce" d="M38.3192,14.9473H33.6808A12.7182,12.7182,0,0,0,21,27.6282V50.4638A12.7182,12.7182,0,0,0,33.6808,63.1447h4.6384A12.7182,12.7182,0,0,0,51,50.4638V27.6281A12.7181,12.7181,0,0,0,38.3192,14.9473Z"/>
    <path fill="#9b9b9a" d="M34.8357,16.7143c3.8087,1.6342,7.4294,3.98,7.8512,9.9073.4884,6.8643-2.0518,19.7168-2.8685,26.2453-.571,4.565-2.8288,6.6783-5.8261,9.0742-1.5117,1.2083,6.6269,1.06,9.9784-.8984,2.8757-1.6806,5.6619-4.5664,5.6958-3.6541l.4064-32.4715A10.4068,10.4068,0,0,0,39.2945,16.184S29.6655,15.6881,34.8357,16.7143Z"/>
    <circle cx="36.7433" cy="30.5134" r="8.9015" fill="#f4aa41"/>
    <path fill="#e27022" d="M38.6987,21.0343a6.2376,6.2376,0,0,1,1.4066,3.9395,8.9015,8.9015,0,0,1-8.9015,8.9014c-1.7653,0-2.2722-.52-3.656-1.4067,1.582,2.47,6.0447,6.946,9.1956,6.946a8.9015,8.9015,0,0,0,8.9015-8.9015C45.6448,27.3624,41.1687,22.6162,38.6987,21.0343Z"/>
  </g>
  <g id="line">
    <path fill="none" stroke="#000" stroke-linecap="round" stroke-linejoin="round" stroke-width="2" d="M40.1294,62.4235H31.8705A10.754,10.754,0,0,1,21.148,51.701v-25.31A10.754,10.754,0,0,1,31.8705,15.6684h8.2589A10.7541,10.7541,0,0,1,50.8519,26.3909v25.31A10.7541,10.7541,0,0,1,40.1294,62.4235Z"/>
    <circle cx="36.7434" cy="30.5134" r="8.9016" fill="none" stroke="#000" stroke-linecap="round" stroke-linejoin="round" stroke-width="2"/>
    <path fill="none" stroke="#000" stroke-linecap="round" stroke-linejoin="round" stroke-width="2" d="M35.8405,15.1015a10.5733,10.5733,0,0,0-.5669-4.2069C32.785,6.1779,15.4192,8.9825,14.2093,5.5335"/>
  </g>
</svg>

<svg id="emoji" viewBox="0 0 72 72" xmlns="http://www.w3.org/2000/svg">
  <g id="grid">
    <path fill="#b3b3b3" d="M68,4V68H4V4H68m4-4H0V72H72V0Z"/>
    <rect x="11" y="10.9583" rx="1.9231" width="50" height="50" fill="none" stroke="#00a5ff" stroke-miterlimit="10" stroke-width="0.1"/>
    <rect x="16" y="4" rx="2.2537" width="40" height="64" fill="none" stroke="#00a5ff" stroke-miterlimit="10" stroke-width="0.1"/>
    <rect x="16" y="4" rx="2.2537" width="40" height="64" transform="translate(72) rotate(90)" fill="none" stroke="#00a5ff" stroke-miterlimit="10" stroke-width="0.1"/>
    <circle cx="36" cy="36" r="29" fill="none" stroke="#00a5ff" stroke-miterlimit="10" stroke-width="0.1"/>
  </g>
  <g id="color">
    <path fill="#d0cfce" d="m38.32 14.95h-4.638a12.72 12.72 0 0 0-12.68 12.68v22.84a12.72 12.72 0 0 0 12.68 12.68h4.638a12.72 12.72 0 0 0 12.68-12.68v-22.84a12.72 12.72 0 0 0-12.68-12.68z"/>
    <path fill="#9b9b9a" d="m34.84 16.71c3.809 1.634 7.429 3.98 7.851 9.907 0.4884 6.864-2.052 19.72-2.868 26.25-0.571 4.565-2.829 6.678-5.826 9.074 7.15 1.956 12.45-1.073 15.39-3.987 2.791-10 1.554-22.51 1.443-33.41-0.8459-5.23-6.24-8.613-11.53-8.356 0 0-9.629-0.4959-4.459 0.5303z"/>
    <circle cx="36.74" cy="30.51" r="8.902" fill="#f4aa41"/>
    <path fill="#e27022" d="m37.95 21.03a6.238 6.238 0 0 1 1.407 3.94 8.902 8.902 0 0 1-8.902 8.901c-1.765 0-2.272-0.52-3.656-1.407 1.582 2.47 6.045 6.946 9.196 6.946a8.902 8.902 0 0 0 8.902-8.902c-1e-4 -3.151-4.476-7.897-6.946-9.479z"/>
  </g>
  <g id="line">
    <path fill="none" stroke="#000" stroke-linecap="round" stroke-linejoin="round" stroke-width="2" d="m40.13 62.42h-8.259a10.75 10.75 0 0 1-10.72-10.72v-25.31a10.75 10.75 0 0 1 10.72-10.72h8.259a10.75 10.75 0 0 1 10.72 10.72v25.31a10.75 10.75 0 0 1-10.72 10.72z"/>
    <circle cx="36" cy="30.51" r="8.902" fill="none" stroke="#000" stroke-linecap="round" stroke-linejoin="round" stroke-width="2"/>
    <path fill="none" stroke="#000" stroke-linecap="round" stroke-linejoin="round" stroke-width="2" d="m36 15.1c0.5005-13.15-19.03-4.582-21.79-9.568"/>
  </g>
</svg>
